Newaita/actions/symbolic/view-more-symbolic.svg

<svg height="16" viewBox="0 0 16 16" width="16" xmlns="http://www.w3.org/2000/svg"><g fill="#424242"><path d="m7.9375 6.410156c.914062 0 1.65625.738282 1.65625 1.652344s-.742188 1.65625-1.65625 1.65625-1.652344-.742188-1.652344-1.65625.738282-1.652344 1.652344-1.652344zm0 0"/><path d="m7.9375 2.109375c.914062 0 1.65625.742187 1.65625 1.652344 0 .914062-.742188 1.65625-1.65625 1.65625s-1.652344-.742188-1.652344-1.65625c0-.910157.738282-1.652344 1.652344-1.652344zm0 0"/><path d="m7.9375 10.710938c.914062 0 1.65625.738281 1.65625 1.652343 0 .914063-.742188 1.652344-1.65625 1.652344s-1.652344-.738281-1.652344-1.652344c0-.914062.738282-1.652343 1.652344-1.652343zm0 0"/></g></svg>

<?xml version="1.0" encoding="UTF-8"?>
<svg xmlns="http://www.w3.org/2000/svg" xmlns:xlink="http://www.w3.org/1999/xlink" width="16px" height="16px" viewBox="0 0 16 16" version="1.1">
<g id="surface1">
<path style=" stroke:none;fill-rule:nonzero;fill:rgb(25.882354%,25.882354%,25.882354%);fill-opacity:1;" d="M 7.9375 6.410156 C 8.851562 6.410156 9.59375 7.148438 9.59375 8.0625 C 9.59375 8.976562 8.851562 9.71875 7.9375 9.71875 C 7.023438 9.71875 6.285156 8.976562 6.285156 8.0625 C 6.285156 7.148438 7.023438 6.410156 7.9375 6.410156 Z M 7.9375 6.410156 "/>
<path style=" stroke:none;fill-rule:nonzero;fill:rgb(25.882354%,25.882354%,25.882354%);fill-opacity:1;" d="M 7.9375 2.109375 C 8.851562 2.109375 9.59375 2.851562 9.59375 3.761719 C 9.59375 4.675781 8.851562 5.417969 7.9375 5.417969 C 7.023438 5.417969 6.285156 4.675781 6.285156 3.761719 C 6.285156 2.851562 7.023438 2.109375 7.9375 2.109375 Z M 7.9375 2.109375 "/>
<path style=" stroke:none;fill-rule:nonzero;fill:rgb(25.882354%,25.882354%,25.882354%);fill-opacity:1;" d="M 7.9375 10.710938 C 8.851562 10.710938 9.59375 11.449219 9.59375 12.363281 C 9.59375 13.277344 8.851562 14.015625 7.9375 14.015625 C 7.023438 14.015625 6.285156 13.277344 6.285156 12.363281 C 6.285156 11.449219 7.023438 10.710938 7.9375 10.710938 Z M 7.9375 10.710938 "/>
</g>
</svg>
